packages/ui-icons/svg/Line/fast-forward.svg

<svg viewBox="0 0 1920 1920" version="1.1" xmlns="http://www.w3.org/2000/svg">
    <path d="M855.281474,308.989309 L855.281474,831.245559 L0,309.52386 L0,1609.76552 L855.281474,1087.93691 L855.281474,1610.30007 L1919.89309,959.644691 L855.281474,308.989309 Z M962.191659,499.610168 L1714.94627,959.644691 L962.191659,1419.67921 L962.191659,499.610168 Z M106.910184,499.930898 L855.281474,956.437385 L855.281474,962.745086 L106.910184,1419.25157 L106.910184,499.930898 Z" stroke="none" stroke-width="1" fill-rule="evenodd"/>
</svg>

<svg viewBox="0 0 1920 1920" xmlns="http://www.w3.org/2000/svg">
    <path d="M855.281 308.99v522.256L0 309.524v1300.242l855.281-521.83V1610.3l1064.612-650.655L855.281 308.989Zm106.91 190.62 752.755 460.035-752.754 460.034V499.61Zm-855.28.32 748.37 456.507v6.308l-748.37 456.507V499.93Z" fill-rule="evenodd"/>
</svg>
